X: 63
T: Motet cycle Quam pulchra es &mdash; 4. O pulcherrima mulierum
C: Gaspar van Weerbeke
%%abc-version 2.0
%%abcx-abcm2ps-target-version 5.9.1 (29 Sep 2008)
%%abc-creator hum2abc beta
%%abcx-conversion-date 2022/03/06 13:05:57
%%abc-copyright Copyright 2021, Pavanello, Agnese
%%abc-edited-by Sapp, Craig Stuart
%%abc-edited-by Wissmann, Rolf
%%humdrum-veritas 3197881591
%%humdrum-veritas-data 1081681092
%%linebreak <none>
%%barnumbers 0
L: 1/4
M: C
N: Derived from Gas0302d-Quam_pulchra_es-O_pulcherrima_mulierum.krn
%%staves [1 2 3 4]
V: 1 clef=treble
V: 2 clef=treble-8
V: 3 clef=treble-8
V: 4 clef=bass
K: F
[V:1] G8 | 
[V:2] d8- | 
[V:3] G8 | 
[V:4] G,8 | 
[V:1] G4F4 | 
[V:2] d8 | 
[V:3] B4A4 | 
[V:4] G,4D,4 | 
[V:1] B6G2 | 
[V:2] B4B3c | 
[V:3] G8 | 
[V:4] (3:2:5_E,2E,2E,2>F,2G,2 | 
[V:1] A2>B2cdB2- | 
[V:2] def4g2- | 
[V:3] F6B2- | 
[V:4] D,4A,2G,2- | 
[V:1] B2G4FE | 
[V:2] gfedc4 | 
[V:3] B4G4 | 
[V:4] G,4_E,4 | 
[V:1] !fermata!F4B4 | 
[V:2] !fermata!d4g4 | 
[V:3] !fermata!A4z4 | 
[V:4] !fermata!D,4z4 | 
[V:1] c2d4cB | 
[V:2] e2f2d2g2- | 
[V:3] z8 | 
[V:4] z8 | 
[V:1] A2A2G4 | 
[V:2] g2^f2g4 | 
[V:3] z4B4 | 
[V:4] z4G,4 | 
[V:1] z8 | 
[V:2] z8 | 
[V:3] c2d4cB | 
[V:4] E,2F,2D,2G,2- | 
[V:1] z8 | 
[V:2] z8 | 
[V:3] A2A2G3A | 
[V:4] G,2^F,2G,3F, | 
[V:1] z8 | 
[V:2] z8 | 
[V:3] B2c2A2d2- | 
[V:4] G,2A,2F,2G,2 | 
[V:1] z8 | 
[V:2] z4f4- | 
[V:3] d2c2d4- | 
[V:4] _E,4D,4- | 
[V:1] z4d4- | 
[V:2] f2f2g4 | 
[V:3] d4B4- | 
[V:4] D,4G,4- | 
[V:1] d2d2_e4- | 
[V:2] g2g4g2 | 
[V:3] B2B2c4 | 
[V:4] G,2G,2C,4- | 
[V:1] e2_e2e4 | 
[V:2] g4gf_ed | 
[V:3] c2c4c2 | 
[V:4] C,2C,2C,4 | 
[V:1] _e4d4 | 
[V:2] c4d4 | 
[V:3] c4B4 | 
[V:4] C,4G,4- | 
[V:1] d2d4B2 | 
[V:2] B2G6 | 
[V:3] B2d6 | 
[V:4] G,2B,2>G,2B,2 | 
[V:1] A6A2 | 
[V:2] A6F2 | 
[V:3] c2>B2c2d2- | 
[V:4] F,4F,2D,2 | 
[V:1] G4F4- | 
[V:2] G4A3B | 
[V:3] d2c2d2f2- | 
[V:4] _E,4D,4- | 
[V:1] F4z4 | 
[V:2] A2d2>c2d2 | 
[V:3] fe2<f2ed2 | 
[V:4] D,4z4 | 
[V:1] z8 | 
[V:2] e2f2>e2f2 | 
[V:3] c2d2>c2A2 | 
[V:4] z8 | 
[V:1] z8 | 
[V:2] g2a4g2- | 
[V:3] G2c4B2 | 
[V:4] z8 | 
[V:1] z8 | 
[V:2] g2^f2g4 | 
[V:3] A4G4 | 
[V:4] z8 | 
[V:1] z2G2G2G2 | 
[V:2] z2d2d2d2 | 
[V:3] z2B2B2B2 | 
[V:4] z2G,2G,2G,2 | 
[V:1] G4A2A2- | 
[V:2] d2>e2f3e | 
[V:3] B4A2A2- | 
[V:4] G,4D,2F,2- | 
[V:1] A2B2A2F2 | 
[V:2] c2e4d2- | 
[V:3] A2G2F2A2- | 
[V:4] F,2E,2F,2D,2 | 
[V:1] G4F4 | 
[V:2] d2^c2d4 | 
[V:3] A2G2A4 | 
[V:4] E,4D,4 | 
[V:1] z2A2A2A2 | 
[V:2] z2d2d2d2 | 
[V:3] z2A2A2A2 | 
[V:4] z2D,2D,2D,2 | 
[V:1] B2A4G2- | 
[V:2] d2f4c2 | 
[V:3] G2c4G2 | 
[V:4] G,2F,4E,2 | 
[V:1] G2^F2G4 | 
[V:2] d4d4 | 
[V:3] A4G4- | 
[V:4] D,4z4 | 
[V:1] z2d2d4- | 
[V:2] z4z2d2 | 
[V:3] G4z4 | 
[V:4] z8 | 
[V:1] d2B2d3e | 
[V:2] d6B2 | 
[V:3] z8 | 
[V:4] z8 | 
[V:1] f2>e2c2f2 | 
[V:2] d2>e2f3e | 
[V:3] z8 | 
[V:4] z8 | 
[V:1] e2d2>c2B2 | 
[V:2] c2f2e2g2 | 
[V:3] z8 | 
[V:4] z8 | 
[V:1] A2d4^c2 | 
[V:2] d2f2e4 | 
[V:3] z8 | 
[V:4] z4A,4 | 
[V:1] d6c2 | 
[V:2] d4z4 | 
[V:3] z8 | 
[V:4] B,4B,2A,2 | 
[V:1] d2B2A4 | 
[V:2] z4a4 | 
[V:3] z8 | 
[V:4] B,2G,4^F,2 | 
[V:1] G2z2z4 | 
[V:2] b6a2 | 
[V:3] z8 | 
[V:4] G,2D4C2 | 
[V:1] z8 | 
[V:2] b2g4^f2 | 
[V:3] z4A4 | 
[V:4] D2B,2A,4 | 
[V:1] z8 | 
[V:2] g2>f2d2c2 | 
[V:3] B6A2 | 
[V:4] G,4z4 | 
[V:1] z4A4 | 
[V:2] d2B2A4 | 
[V:3] B2G4^F2 | 
[V:4] z4D,4 | 
[V:1] B6A2 | 
[V:2] G2g4e2 | 
[V:3] G2d4c2 | 
[V:4] G,6A,2 | 
[V:1] B2G4^F2 | 
[V:2] f2d6 | 
[V:3] d2B2A4 | 
[V:4] D,2G,2D,4 | 
[V:1] G4B2c2 | 
[V:2] B4z4 | 
[V:3] G4d2e2 | 
[V:4] z2G,4E,2 | 
[V:1] d2B2A2B2- | 
[V:2] d2>e2f2g2- | 
[V:3] f2g2f2d2- | 
[V:4] D,2G,2D,2G,2- | 
[V:1] B2A4G2- | 
[V:2] g2e2f2d2- | 
[V:3] d2c4B2 | 
[V:4] G,2A,2F,2G,2 | 
[V:1] G2^F2 | 
[V:2] d4 | 
[V:3] A4 | 
[V:4] D,4 | 
[V:1] [M:3/1]G6G6 | 
[V:2] [M:3/1]d4d2_e2>d2c2 | 
[V:3] [M:3/1]G6G6 | 
[V:4] [M:3/1]G,6_E,4E,2 | 
[V:1] F4F2E4F2 | 
[V:2] d6G4F2 | 
[V:3] A4B2c4A2 | 
[V:4] D,6C,4D,2 | 
[V:1] G4_E2F2>G2A2 | 
[V:2] B4G2A4F2 | 
[V:3] G6d6 | 
[V:4] _E,6D,6 | 
[V:1] B4G2A2>B2c2 | 
[V:2] B2>A2B2c4G2 | 
[V:3] d4e2f4c2 | 
[V:4] G,6F,4E,2 | 
[V:1] d4c2B2c4 | 
[V:2] A4a2g2a4 | 
[V:3] f4e2d2e4 | 
[V:4] D,4A,2B,2A,4 | 
[V:1] d4d2c4c2 | 
[V:2] f4a2a4a2 | 
[V:3] d4f2e4e2 | 
[V:4] D,4D,2A,4A,2 | 
[V:1] d2d2d2c4c2 | 
[V:2] a2a2a2a4a2 | 
[V:3] d2d2f2e4e2 | 
[V:4] D,2D,2D,2A,4A,2 | 
[V:1] d6z6 | 
[V:2] f6g4g2 | 
[V:3] d6e4e2 | 
[V:4] D,4D,2C,4C,2 | 
[V:1] f4e2d2c4 | 
[V:2] f2>g2a2b2a2f2 | 
[V:3] d4c2B2c2A2 | 
[V:4] D,4z2z6 | 
[V:1] B4A2G2F2G2 | 
[V:2] g4f2d2f2e2 | 
[V:3] G4A2B4G2 | 
[V:4] z4>G,4D,2E,2 | 
[V:1] A4A2G2>F2G2 | 
[V:2] f4z2d4d2 | 
[V:3] F6B6 | 
[V:4] D,4D,2G,4G,2 | 
[V:1] A4G2A2>B2c2 | 
[V:2] d4e2f6 | 
[V:3] A4B2c6 | 
[V:4] D,4G,2F,2>G,2A,2 | 
[V:1] B2>A2G2G4^F2 | 
[V:2] g4e4d4 | 
[V:3] d4B2c2A4 | 
[V:4] G,4G,2C,2D,4 | 
[V:1] G4z2d4d2 | 
[V:2] d6z4g2 | 
[V:3] G8-G2z2 | 
[V:4] z6B,4G,2 | 
[V:1] f2>e2d2c4B2 | 
[V:2] a2f2g2a4g2 | 
[V:3] d4d2f2>e2d2 | 
[V:4] F,2B,4F,4B,2 | 
[V:1] A4G2F2>G2AB | 
[V:2] f2>e2d2d2>B2c2 | 
[V:3] c4B2A2>B2A2 | 
[V:4] F,4G,2D,2>G,2F,2 | 
[V:1] c2>B2AGA2B3A | 
[V:2] f4e2f2g4 | 
[V:3] F2>G2ABc2d2B2 | 
[V:4] A,2>B,2C2A,2G,4 | 
[V:1] G4^F2G12 |]  
[V:2] e2d4d12 |]  
[V:3] c2A4G12 |]  
[V:4] C,2D,4G,12 |]  


